!!!SOCIAL_FUNCTION:	war songs
!!!PDT:	1913
!!!OTL: No_89_War_Song.krn
!!!REG: Great_Lakes
!!!LANG: Non-Tone
!!!LING_GROUP: Algonquin
**kern	**kern
*staff2	*staff1
=1-	=1-
*clefF4	*clefF4
*k[b-e-]	*k[b-e-]
*M2/4	*M2/4
12GG^/	4d\
12r	.
12GG/	.
12GG^/	8d\L
12r	.
.	8d\J
12GG/	.
=2	=2
12GG^/	2d\
12r	.
12GG/	.
12GG^/	.
12r	.
12GG/	.
=3	=3
2r	8c\L
.	8c\J
.	4c\
=4	=4
2r	4d\
.	8B-\L
.	8B-\J
=5	=5
2r	2B-\
=6	=6
2r	8G\L
.	8B-\J
.	4B-\
=7	=7
2r	4d\
.	8B-\L
.	8B-\J
=8	=8
2r	2B-\
=9	=9
2r	8B-\L
.	8G\J
.	8G\L
.	8F\J
=10	=10
2r	4G\
.	8G\L
.	8G\J
=11	=11
2r	2G\
=12	=12
2r	8F\L
.	8F\J
.	4F\
=13	=13
2r	4G\
.	8D\L
.	8D\J
=14	=14
2r	2D\
=15	=15
2r	8C/L
.	8C/J
.	4C/
=16	=16
2r	4D\
.	8BB-/L
.	8BB-/J
=17	=17
2r	2BB-/
=18	=18
2r	8GG/L
.	8GG/J
.	4GG/
=19	=19
2r	4BB-/
.	8GG/L
.	8GG/J
=20	=20
2r	2BB-/
=21	=21
2r	8GG/L
.	8GG/J
.	4GG/
=22	=22
2r	4.GG/
.	8GG/
=23	=23
2r	[2GG/
=24	=24
2r	2GG/]
==	==
*-	*-
